src/status/symbolic/battery-level-90-charging-symbolic.svg

<svg width="16" height="16" version="1.1" xmlns="http://www.w3.org/2000/svg">
 <g id="g10" fill="#363636" fill-rule="evenodd">
  <path id="path4" d="m2 3c-1.108 0-2 0.892-2 2v6c0 1.108 0.892 2 2 2h9c1.108 0 2-0.892 2-2v-6c0-1.108-0.892-2-2-2h-9zm0 1h9c0.554 0 1 0.446 1 1v6c0 0.554-0.446 1-1 1h-9c-0.554 0-1-0.446-1-1v-6c0-0.554 0.446-1 1-1z" style="paint-order:stroke fill markers"/>
  <path id="rect6" d="m2.5 5c-0.277 0-0.5 0.223-0.5 0.5v5c0 0.277 0.223 0.5 0.5 0.5h2.4688l0.25-1h-1.7188a1.0001 1.0001 0 0 1-0.83203-1.5547l2.2969-3.4453h-2.4648zm5.5312 0-0.25 1h1.7188a1.0001 1.0001 0 0 1 0.5 0.13477v-0.63477c0-0.277-0.223-0.5-0.5-0.5h-1.4688zm-2.3633 2.5527-0.29883 0.44727h1.1152a1.0001 1.0001 0 0 1-0.81641-0.44727zm0.84766 0.44727a1.0001 1.0001 0 0 1 0.81641 0.44727l0.29883-0.44727h-1.1152zm3.4844 0.052734-1.9648 2.9473h1.4648c0.277 0 0.5-0.223 0.5-0.5v-2.4473z" style="paint-order:stroke fill markers"/>
  <path id="path8" d="m14 6v4a2 2 0 0 0 2-2 2 2 0 0 0-2-2z" enable-background="new" style="paint-order:stroke fill markers"/>
 </g>
 <path id="path4-3" d="m6.834 4-3.334 5h3l-0.75 3h0.41602l3.334-5h-3l0.75-3z" enable-background="new" fill="#363636"/>
</svg>

<svg width="16" height="16" xmlns="http://www.w3.org/2000/svg"><g fill="#363636" fill-rule="evenodd" paint-order="stroke fill markers"><path d="M2 3C.892 3 0 3.892 0 5v6c0 1.108.892 2 2 2h9c1.108 0 2-.892 2-2V5c0-1.108-.892-2-2-2H2zm0 1h9c.554 0 1 .446 1 1v6c0 .554-.446 1-1 1H2c-.554 0-1-.446-1-1V5c0-.554.446-1 1-1z"/><path d="M2.5 5c-.277 0-.5.223-.5.5v5c0 .277.223.5.5.5h2.469l.25-1H3.5a1 1 0 01-.832-1.555L4.965 5H2.5zm5.531 0l-.25 1H9.5a1 1 0 01.5.135V5.5c0-.277-.223-.5-.5-.5H8.031zM5.668 7.553L5.369 8h1.115a1 1 0 01-.816-.447zM6.516 8a1 1 0 01.816.447L7.631 8H6.516zM10 8.053L8.035 11H9.5c.277 0 .5-.223.5-.5V8.053zM14 6v4a2 2 0 002-2 2 2 0 00-2-2z"/></g><path d="M6.834 4L3.5 9h3l-.75 3h.416L9.5 7h-3l.75-3z" fill="#363636"/></svg>
